X: 18234
T: Humours Of Kinvara, The
R: reel
M: 4/4
K: Edorian
cA|:BE (3EEE BEdE|BE (3EEE BEdE|cA (3AAA AcAe|1 ceef e2cA:|2 ceef ~e2 cA||
|:Affe dcBA|~f3e d3e|~f3e fgaf|1 ecAc ~e2cA:|2 ecAc ~e2||

